app/src/main/assets/蓝调街拍-益墨素材10.cube
# Created by Adobe Lightroom plugin Export LUT (1.24.0)
# www.johnrellis.com/lightroom/exportlut.htm
# Preset: 蓝调街拍-益墨素材10
# Color profile: C:\Program Files (x86)\Common Files\Adobe\Color\Profiles\Recommended\VideoHD.icc
LUT_3D_SIZE 8
DOMAIN_MIN 0.000000 0.000000 0.000000
DOMAIN_MAX 0.903226 0.903226 0.903226
0.161837 0.155123 0.148379
0.204715 0.163516 0.154910
0.300542 0.186923 0.172915
0.420539 0.216007 0.190982
0.584710 0.258518 0.212802
0.780453 0.314092 0.237034
0.939849 0.373968 0.274662
1.000000 0.443091 0.343938
0.170260 0.174807 0.161257
0.208499 0.179110 0.155337
0.301396 0.196933 0.170230
0.421576 0.225223 0.188632
0.586206 0.268406 0.210056
0.781582 0.323430 0.234287
0.940520 0.381323 0.272740
1.000000 0.448096 0.343114
0.193606 0.215702 0.190799
0.218357 0.212558 0.194858
0.299168 0.234653 0.176364
0.426886 0.262821 0.177462
0.593317 0.306249 0.198581
0.787320 0.359442 0.223117
0.943938 0.410529 0.264988
1.000000 0.468452 0.339849
0.220066 0.271641 0.229557
0.243351 0.271580 0.231052
0.296544 0.279576 0.221958
0.431739 0.318212 0.201053
0.612909 0.370031 0.177371
0.800229 0.420142 0.199466
0.951202 0.461433 0.249638
1.000000 0.505486 0.334264
0.245731 0.339239 0.274327
0.265171 0.339300 0.273686
0.327550 0.324498 0.282780
0.427710 0.380377 0.242588
0.620600 0.439277 0.222141
0.819364 0.496986 0.184878
0.962463 0.529412 0.224552
1.000000 0.556664 0.327214
0.268711 0.424475 0.328771
0.288273 0.424506 0.327398
0.372778 0.417578 0.338659
0.436835 0.423835 0.326696
0.633021 0.530022 0.267308
0.830137 0.580102 0.251926
0.971099 0.606104 0.235569
1.000000 0.618097 0.319921
0.283879 0.548547 0.405280
0.307866 0.548333 0.403571
0.398047 0.546227 0.404730
0.497139 0.503380 0.415595
0.643061 0.604364 0.381140
0.856901 0.694209 0.331365
0.975372 0.695644 0.343267
1.000000 0.687129 0.344152
0.336889 0.716976 0.523583
0.366186 0.716243 0.522637
0.466896 0.712551 0.522606
0.613855 0.685237 0.546044
0.695796 0.689174 0.536370
0.868894 0.799863 0.503838
0.977935 0.805234 0.496681
1.000000 0.781003 0.500481
0.157778 0.169558 0.179538
0.197055 0.176852 0.174838
0.294957 0.195132 0.169223
0.411658 0.228702 0.185367
0.576867 0.273106 0.206607
0.775235 0.328038 0.231266
0.937194 0.384283 0.270085
1.000000 0.449042 0.341009
0.162448 0.185733 0.186069
0.201328 0.192599 0.183902
0.293400 0.207401 0.178653
0.413336 0.237095 0.183047
0.579004 0.281346 0.204318
0.776791 0.336278 0.228763
0.938079 0.391180 0.268345
1.000000 0.453773 0.340307
0.189395 0.228367 0.209934
0.216312 0.229770 0.207767
0.296025 0.242985 0.197910
0.422400 0.269474 0.187655
0.588739 0.315068 0.194003
0.783841 0.368750 0.218418
0.942016 0.418372 0.261112
1.000000 0.473182 0.337438
0.213535 0.281224 0.242985
0.236637 0.281346 0.241184
0.297215 0.284092 0.238254
0.429877 0.323247 0.217502
0.610590 0.372992 0.196506
0.798184 0.426368 0.195285
0.950011 0.466896 0.246342
1.000000 0.509209 0.332341
0.238102 0.347265 0.285130
0.258518 0.347326 0.283330
0.331731 0.336370 0.290929
0.423743 0.381567 0.256626
0.619654 0.442634 0.237217
0.818509 0.499367 0.204288
0.961730 0.533410 0.221653
1.000000 0.559503 0.325597
0.259922 0.431769 0.338476
0.280674 0.431800 0.336645
0.368627 0.429358 0.345373
0.436378 0.425147 0.337072
0.631769 0.533654 0.279667
0.829129 0.582910 0.267826
0.970245 0.608789 0.253361
1.000000 0.620203 0.318791
0.270817 0.555383 0.414679
0.296422 0.555230 0.412573
0.385107 0.553735 0.408484
0.501518 0.514122 0.422736
0.640223 0.604669 0.392035
0.855314 0.696864 0.343938
0.973907 0.698390 0.357336
1.000000 0.690059 0.357702
0.321172 0.721462 0.531273
0.352850 0.720729 0.529992
0.458045 0.717159 0.528710
0.613489 0.693568 0.553155
0.692622 0.686915 0.542809
0.866514 0.800534 0.513909
0.976013 0.807401 0.506798
1.000000 0.783566 0.510552
0.145541 0.200687 0.236606
0.169986 0.203403 0.236484
0.266575 0.220432 0.227359
0.402380 0.248814 0.224704
0.569238 0.295659 0.212619
0.766598 0.359442 0.217533
0.931426 0.412940 0.257145
1.000000 0.467170 0.332830
0.158297 0.214817 0.241520
0.182162 0.217594 0.241672
0.269627 0.232609 0.234012
0.401312 0.258396 0.231144
0.569940 0.303471 0.218418
0.767758 0.367529 0.214511
0.932708 0.418585 0.255802
1.000000 0.471473 0.332250
0.171817 0.248600 0.257053
0.195193 0.252049 0.256718
0.278264 0.266636 0.253330
0.405646 0.290196 0.249546
0.578637 0.332128 0.234470
0.776455 0.395026 0.207614
0.937377 0.442329 0.249027
1.000000 0.489143 0.330022
0.192538 0.297856 0.281071
0.210513 0.303624 0.283116
0.291447 0.314336 0.280827
0.419318 0.341100 0.271031
0.599695 0.385443 0.259648
0.792325 0.440436 0.231327
0.946410 0.486671 0.234745
1.000000 0.522637 0.325811
0.196658 0.374762 0.330022
0.217594 0.377722 0.330083
0.308171 0.378027 0.318547
0.415991 0.392401 0.309117
0.612634 0.456458 0.292241
0.813535 0.510674 0.273655
0.958709 0.546441 0.248203
1.000000 0.570214 0.320073
0.208286 0.461219 0.382422
0.236210 0.461280 0.379248
0.328679 0.460914 0.369268
0.439734 0.432258 0.376471
0.624079 0.548394 0.327398
0.823362 0.594995 0.326940
0.965881 0.620935 0.319707
1.000000 0.628534 0.314366
0.189303 0.583093 0.456672
0.229435 0.583062 0.453498
0.346075 0.581933 0.442725
0.510643 0.561975 0.454475
0.626307 0.603204 0.435065
0.847196 0.707881 0.394476
0.966979 0.710475 0.413123
1.000000 0.703090 0.412055
0.229282 0.739284 0.564355
0.277897 0.738705 0.562280
0.413489 0.735531 0.556420
0.595087 0.725002 0.574762
0.679713 0.675441 0.566674
0.853758 0.800351 0.553582
0.967895 0.816068 0.546319
1.000000 0.794308 0.550866
0.083528 0.241642 0.307195
0.120180 0.243381 0.308324
0.220554 0.249760 0.311681
0.359472 0.278141 0.297459
0.550011 0.322454 0.305760
0.760586 0.377111 0.286259
0.928801 0.441718 0.266575
1.000000 0.492561 0.322850
0.109560 0.253422 0.312657
0.138277 0.254765 0.313329
0.227115 0.261082 0.315740
0.362158 0.286870 0.302251
0.550378 0.329931 0.309758
0.761135 0.384161 0.290837
0.929229 0.447211 0.271489
1.000000 0.496895 0.322026
0.129274 0.282994 0.326665
0.155764 0.285130 0.327276
0.238834 0.293797 0.328771
0.371191 0.317174 0.319188
0.555016 0.359045 0.325200
0.764157 0.412543 0.309758
0.931609 0.470161 0.290562
1.000000 0.513756 0.319585
0.128023 0.329656 0.350408
0.156466 0.332006 0.350713
0.244144 0.343053 0.351629
0.385199 0.369604 0.349157
0.568536 0.411322 0.352697
0.773983 0.463142 0.340276
0.938842 0.510735 0.319158
1.000000 0.544152 0.316197
0.141085 0.392920 0.382513
0.168978 0.395911 0.383032
0.256840 0.409155 0.384649
0.399634 0.432807 0.384039
0.588678 0.481544 0.380835
0.793393 0.534966 0.381292
0.948150 0.570977 0.363226
1.000000 0.590387 0.344671
0.000000 0.491249 0.444160
0.101137 0.496529 0.446571
0.240116 0.509483 0.448585
0.417151 0.514549 0.431495
0.584985 0.548852 0.420447
0.806485 0.619135 0.424445
0.952819 0.649714 0.431159
1.000000 0.654414 0.413489
0.000000 0.623133 0.532860
0.000000 0.626184 0.533196
0.192203 0.632044 0.525444
0.440101 0.627680 0.501030
0.600397 0.590906 0.504295
0.826139 0.727993 0.481147
0.950530 0.735195 0.508415
1.000000 0.731624 0.508904
0.000000 0.770809 0.633295
0.000000 0.770352 0.630121
0.254124 0.767758 0.617792
0.509514 0.760342 0.603876
0.692226 0.725216 0.617456
0.823667 0.792477 0.613764
0.952026 0.831449 0.611292
1.000000 0.813901 0.618219
0.000000 0.296513 0.397559
0.000000 0.297368 0.398657
0.133059 0.300877 0.402716
0.321355 0.319036 0.406043
0.482399 0.350072 0.388952
0.723110 0.420203 0.416907
0.912505 0.479835 0.407233
1.000000 0.533379 0.401160
0.000000 0.305669 0.402350
0.000000 0.306401 0.403265
0.143648 0.309575 0.406744
0.318578 0.323644 0.410163
0.484840 0.357427 0.392981
0.723445 0.426886 0.420172
0.912505 0.486244 0.411597
1.000000 0.538079 0.405219
0.000000 0.333013 0.416571
0.000000 0.333806 0.417304
0.159335 0.337804 0.419928
0.312596 0.346960 0.424720
0.493874 0.385901 0.408881
0.725368 0.453620 0.434211
0.912718 0.511925 0.429603
1.000000 0.557092 0.421057
0.000000 0.374701 0.438972
0.000000 0.376196 0.439673
0.161440 0.383246 0.442359
0.321904 0.399390 0.446662
0.509789 0.437324 0.438056
0.732570 0.502586 0.461341
0.915099 0.557733 0.461616
1.000000 0.589654 0.446052
0.000000 0.435859 0.472724
0.000000 0.437720 0.473274
0.141970 0.446479 0.475319
0.326574 0.467689 0.479103
0.529778 0.510613 0.481300
0.749203 0.572259 0.501549
0.921691 0.618769 0.503319
1.000000 0.636652 0.483223
0.000000 0.516472 0.518669
0.000000 0.518761 0.519249
0.070069 0.529625 0.521477
0.323247 0.554284 0.525292
0.545129 0.589014 0.524987
0.769100 0.652766 0.541222
0.924590 0.695399 0.563592
1.000000 0.702022 0.546349
0.000000 0.624414 0.585901
0.000000 0.626795 0.585840
0.000000 0.645075 0.593225
0.240726 0.679225 0.605493
0.568933 0.683925 0.584527
0.769345 0.727962 0.585016
0.923949 0.768460 0.617212
1.000000 0.773281 0.623865
0.000000 0.783658 0.697322
0.000000 0.785580 0.697169
0.000000 0.793179 0.696223
0.270237 0.804196 0.693477
0.620813 0.790921 0.667353
0.774380 0.764553 0.670832
0.927794 0.850614 0.686976
0.987182 0.839536 0.698238
0.000000 0.367895 0.514488
0.000000 0.368200 0.515404
0.000000 0.369024 0.518914
0.180240 0.370062 0.525078
0.455940 0.406287 0.522576
0.638148 0.443671 0.508324
0.856657 0.563561 0.564904
0.983673 0.633661 0.586297
0.000000 0.375128 0.518791
0.000000 0.375219 0.519554
0.000000 0.376013 0.522576
0.184604 0.377264 0.528435
0.457282 0.412848 0.527092
0.640223 0.450385 0.511955
0.855650 0.571221 0.569848
0.983062 0.638025 0.589715
0.000000 0.399084 0.532799
0.000000 0.399451 0.533349
0.000000 0.400671 0.535790
0.193362 0.404028 0.540856
0.458869 0.439002 0.544701
0.648035 0.477546 0.526757
0.856352 0.592279 0.582635
0.980804 0.655360 0.602960
0.000000 0.438575 0.555352
0.000000 0.439399 0.555962
0.000000 0.442908 0.558495
0.198978 0.450111 0.562768
0.435096 0.469062 0.569940
0.660700 0.528008 0.554314
0.859861 0.629938 0.606378
0.978393 0.684779 0.625299
0.000000 0.493843 0.586755
0.000000 0.494881 0.587182
0.000000 0.499886 0.588952
0.184848 0.511498 0.592676
0.438025 0.537224 0.598688
0.676722 0.595666 0.593133
0.869932 0.680049 0.638880
0.979492 0.719417 0.648981
0.000000 0.565118 0.626490
0.000000 0.566583 0.626795
0.000000 0.572595 0.628138
0.139284 0.587152 0.630701
0.440650 0.618219 0.635584
0.696834 0.677272 0.643885
0.882658 0.740597 0.679164
0.979278 0.762478 0.679744
0.000000 0.657954 0.685145
0.000000 0.659510 0.685084
0.000000 0.666133 0.685298
0.000000 0.681910 0.685695
0.427466 0.713252 0.686641
0.709804 0.749020 0.686763
0.887205 0.802640 0.720333
0.967529 0.820432 0.736049
0.000000 0.770108 0.757565
0.000000 0.771511 0.757168
0.000000 0.777981 0.755032
0.000000 0.792538 0.750332
0.376043 0.829343 0.760403
0.739376 0.824887 0.743374
0.886564 0.855528 0.758541
0.961975 0.867338 0.778225
0.000000 0.465156 0.675074
0.000000 0.464851 0.675319
0.000000 0.463508 0.676539
0.000000 0.461616 0.678767
0.302373 0.463294 0.682307
0.627070 0.533745 0.668299
0.800320 0.588190 0.657435
0.926513 0.713863 0.711604
0.000000 0.470283 0.677638
0.000000 0.469978 0.677882
0.000000 0.468696 0.678950
0.000000 0.467079 0.680934
0.304692 0.469520 0.684352
0.628290 0.539483 0.671168
0.800900 0.593561 0.659968
0.925933 0.717891 0.714382
0.000000 0.489052 0.687129
0.000000 0.488808 0.687251
0.000000 0.488136 0.688045
0.000000 0.487892 0.689601
0.312993 0.493568 0.692378
0.632258 0.562249 0.682734
0.802976 0.614832 0.670344
0.923827 0.733822 0.725765
0.000000 0.521324 0.703243
0.000000 0.521416 0.703395
0.000000 0.521843 0.703883
0.000000 0.524132 0.704829
0.320684 0.534600 0.706752
0.636225 0.601862 0.703517
0.806912 0.651820 0.689387
0.920745 0.762692 0.747372
0.000000 0.566705 0.725612
0.000000 0.567071 0.725643
0.000000 0.568353 0.725795
0.000000 0.571893 0.725887
0.309941 0.586145 0.726497
0.608057 0.631403 0.728054
0.812589 0.699367 0.715541
0.923949 0.790921 0.768460
0.000000 0.624720 0.753384
0.000000 0.625269 0.753384
0.000000 0.627741 0.753262
0.000000 0.633997 0.752865
0.287022 0.649439 0.751949
0.598352 0.689631 0.751736
0.820340 0.756130 0.749203
0.930114 0.822477 0.792142
0.000000 0.691646 0.784421
0.000000 0.692500 0.784360
0.000000 0.696376 0.784054
0.000000 0.705806 0.783291
0.316564 0.725826 0.781857
0.614343 0.763149 0.781125
0.832609 0.817411 0.790036
0.937255 0.856229 0.816739
0.000000 0.776272 0.834806
0.000000 0.777279 0.834623
0.000000 0.781704 0.833677
0.000000 0.791653 0.831449
0.254734 0.809934 0.827054
0.605737 0.838407 0.820676
0.839658 0.861265 0.818296
0.938811 0.890929 0.842893
0.000000 0.567926 0.835599
0.000000 0.569116 0.835019
0.000000 0.569543 0.834470
0.000000 0.572015 0.833158
0.242985 0.583978 0.830198
0.575494 0.630762 0.823331
0.798093 0.710536 0.803372
0.902037 0.756649 0.795377
0.000000 0.571862 0.836332
0.000000 0.572686 0.835874
0.000000 0.572992 0.835386
0.000000 0.575677 0.834012
0.248234 0.587945 0.830991
0.575799 0.633783 0.824155
0.798428 0.713588 0.804593
0.901793 0.759152 0.796567
0.000000 0.585534 0.839658
0.000000 0.585534 0.839506
0.000000 0.586267 0.838926
0.000000 0.589776 0.837491
0.263340 0.603326 0.834257
0.575433 0.645594 0.827573
0.799863 0.725643 0.809384
0.901122 0.769039 0.801328
0.000000 0.607538 0.846464
0.000000 0.607721 0.846311
0.000000 0.609094 0.845609
0.000000 0.613825 0.843992
0.274113 0.629358 0.840421
0.573999 0.667567 0.833890
0.801694 0.746487 0.818235
0.900237 0.786252 0.810025
0.000000 0.638453 0.856352
0.000000 0.638544 0.856199
0.000000 0.638849 0.855467
0.000000 0.643610 0.853696
0.241642 0.660212 0.849821
0.569635 0.697719 0.842832
0.801541 0.772763 0.830869
0.900053 0.808560 0.822141
0.000000 0.681178 0.868742
0.000000 0.681453 0.868589
0.000000 0.682765 0.867887
0.000000 0.686519 0.866148
0.042237 0.696559 0.862577
0.545922 0.731197 0.855161
0.781094 0.789151 0.846250
0.900908 0.835569 0.837949
0.000000 0.731228 0.882719
0.000000 0.731838 0.882567
0.000000 0.734401 0.881834
0.000000 0.740902 0.880034
0.217685 0.754665 0.876463
0.541222 0.779629 0.870176
0.767147 0.821073 0.861387
0.903655 0.866300 0.857603
0.000000 0.786404 0.897246
0.000000 0.787228 0.897063
0.000000 0.790921 0.896269
0.000000 0.799252 0.894499
0.332311 0.814420 0.891173
0.590539 0.838285 0.885801
0.781155 0.868284 0.879484
0.910582 0.900725 0.882597
