app/src/main/assets/蓝调街拍-益墨素材10.cube
# Created by Adobe Lightroom plugin Export LUT (1.24.0)
# www.johnrellis.com/lightroom/exportlut.htm
# Preset: 蓝调街拍-益墨素材10
# Color profile: C:\Program Files (x86)\Common Files\Adobe\Color\Profiles\Recommended\VideoHD.icc
LUT_3D_SIZE 5
DOMAIN_MIN 0.000000 0.000000 0.000000
DOMAIN_MAX 0.903226 0.903226 0.903226
0.161837 0.155123 0.148379
0.274693 0.181125 0.168734
0.496864 0.235233 0.201724
0.825010 0.328740 0.244358
1.000000 0.443091 0.343938
0.187259 0.203983 0.182315
0.273564 0.218570 0.170474
0.502037 0.270634 0.191501
0.828916 0.361028 0.234745
1.000000 0.461646 0.340917
0.232914 0.303929 0.251133
0.297032 0.293095 0.258701
0.519524 0.374090 0.212497
0.850767 0.467872 0.191684
1.000000 0.529534 0.330877
0.273838 0.450935 0.345190
0.348180 0.449836 0.345708
0.519921 0.487922 0.325231
0.875547 0.613001 0.267369
1.000000 0.634577 0.318486
0.336889 0.716976 0.523583
0.436683 0.713893 0.521782
0.641993 0.655238 0.539330
0.905943 0.814023 0.491218
1.000000 0.781003 0.500481
0.151003 0.192355 0.221256
0.247318 0.208133 0.212680
0.482582 0.264225 0.201785
0.813840 0.365240 0.228580
1.000000 0.461707 0.335241
0.172915 0.231693 0.237644
0.257023 0.246159 0.234195
0.487984 0.292821 0.220096
0.820066 0.390814 0.220279
1.000000 0.478218 0.333074
0.200839 0.331518 0.294713
0.282628 0.334051 0.286259
0.512718 0.388495 0.264561
0.846372 0.480964 0.219883
1.000000 0.540978 0.324956
0.231357 0.477546 0.383032
0.317998 0.477302 0.374273
0.512322 0.491737 0.366705
0.870939 0.623651 0.323369
1.000000 0.641779 0.314488
0.266606 0.733455 0.553155
0.394385 0.730739 0.547662
0.650721 0.685939 0.564721
0.893462 0.814176 0.529900
1.000000 0.790799 0.537926
0.000000 0.267308 0.349706
0.155001 0.272099 0.353765
0.417365 0.312016 0.340490
0.797330 0.408118 0.344213
1.000000 0.507561 0.322759
0.033570 0.298100 0.365087
0.178164 0.302739 0.367254
0.426062 0.339727 0.355688
0.798520 0.434150 0.360479
1.000000 0.523552 0.336828
0.000000 0.379767 0.407935
0.179080 0.388251 0.409522
0.453101 0.435615 0.410590
0.812528 0.526940 0.418006
1.000000 0.583001 0.385962
0.000000 0.520470 0.486915
0.114168 0.538293 0.494514
0.480720 0.574640 0.488869
0.837980 0.668879 0.500298
1.000000 0.694820 0.499947
0.000000 0.780667 0.668147
0.000000 0.787381 0.667506
0.563714 0.775051 0.633692
0.845914 0.811185 0.645106
0.998779 0.826047 0.656977
0.000000 0.390387 0.551751
0.000000 0.390600 0.554467
0.268467 0.390936 0.564904
0.681514 0.474281 0.544152
0.968292 0.661372 0.627985
0.000000 0.412726 0.564660
0.000000 0.412940 0.566644
0.276341 0.416724 0.575586
0.687221 0.499062 0.557000
0.966369 0.675990 0.638941
0.000000 0.482521 0.604028
0.000000 0.485328 0.605524
0.285588 0.501671 0.612024
0.706050 0.586999 0.604364
0.963714 0.724575 0.675044
0.000000 0.598505 0.667506
0.000000 0.603235 0.668238
0.259800 0.629145 0.671809
0.736141 0.717281 0.684596
0.966552 0.791165 0.722072
0.000000 0.772427 0.779171
0.000000 0.777493 0.777615
0.000000 0.802762 0.769955
0.767239 0.833677 0.762936
0.955871 0.873808 0.796170
0.000000 0.567926 0.835599
0.000000 0.569390 0.834623
0.000000 0.575921 0.831998
0.662409 0.667506 0.819120
0.902037 0.756649 0.795377
0.000000 0.581384 0.838468
0.000000 0.581750 0.837949
0.000000 0.589654 0.835050
0.656031 0.672358 0.822812
0.901305 0.765835 0.799741
0.000000 0.621149 0.851011
0.000000 0.622492 0.850401
0.000000 0.634302 0.846921
0.632319 0.695644 0.835935
0.900084 0.796750 0.815640
0.000000 0.693019 0.872160
0.000000 0.694484 0.871489
0.000000 0.703853 0.868070
0.606653 0.752773 0.856443
0.901366 0.842893 0.842466
0.000000 0.786404 0.897246
0.000000 0.789639 0.896544
0.000000 0.805814 0.893034
0.643885 0.845518 0.884184
0.910582 0.900725 0.882597
