app/src/main/assets/蓝调街拍-益墨素材10.cube
# Created by Adobe Lightroom plugin Export LUT (1.24.0)
# www.johnrellis.com/lightroom/exportlut.htm
# Preset: 蓝调街拍-益墨素材10
# Color profile: C:\Program Files (x86)\Common Files\Adobe\Color\Profiles\Recommended\VideoHD.icc
LUT_3D_SIZE 32
DOMAIN_MIN 0.0 0.0 0.0
DOMAIN_MAX 1.0 1.0 1.0
0.161837 0.155123 0.148379
0.163851 0.155245 0.148501
0.170840 0.156527 0.149416
0.185275 0.158968 0.151431
0.204715 0.163516 0.154910
0.226780 0.169467 0.159823
0.250065 0.175265 0.164370
0.274693 0.181125 0.168734
0.300542 0.186923 0.172915
0.327306 0.193210 0.177005
0.355993 0.199985 0.181430
0.386816 0.207614 0.186191
0.420539 0.216007 0.190982
0.457221 0.225223 0.196292
0.496864 0.235233 0.201724
0.539422 0.246372 0.207218
0.584710 0.258518 0.212802
0.632593 0.271550 0.218387
0.682826 0.285191 0.224216
0.732815 0.299657 0.230198
0.780453 0.314092 0.237034
0.825010 0.328740 0.244358
0.866026 0.343297 0.252873
0.904417 0.358404 0.262852
0.939849 0.373968 0.274662
0.971618 0.390051 0.288518
0.999451 0.406806 0.304631
1.000000 0.424353 0.323033
1.000000 0.443091 0.343938
1.000000 0.463386 0.367193
1.000000 0.485451 0.393317
1.000000 0.510033 0.422309
0.161929 0.155886 0.148684
0.163821 0.155856 0.148440
0.171115 0.157076 0.149325
0.185794 0.159487 0.151339
0.205142 0.164004 0.155032
0.226993 0.169955 0.159731
0.250248 0.175723 0.164309
0.274723 0.181430 0.168673
0.300542 0.187381 0.172671
0.327428 0.193637 0.176944
0.355993 0.200412 0.181369
0.386877 0.207858 0.185977
0.420539 0.216403 0.190921
0.457221 0.225559 0.196231
0.496864 0.235660 0.201511
0.539666 0.246708 0.207126
0.584833 0.258946 0.212711
0.632685 0.271885 0.218326
0.682948 0.285649 0.224125
0.732753 0.299931 0.230137
0.780484 0.314366 0.236851
0.824979 0.328954 0.244297
0.866056 0.343694 0.252689
0.904509 0.358740 0.262669
0.939879 0.374304 0.274601
0.971679 0.390265 0.288457
0.999451 0.406989 0.304601
1.000000 0.424506 0.323003
1.000000 0.443244 0.343908
1.000000 0.463508 0.367193
1.000000 0.485634 0.393286
1.000000 0.510155 0.422339
0.163760 0.158694 0.150515
0.165438 0.158694 0.151125
0.171786 0.159854 0.149538
0.186526 0.162203 0.150912
0.206180 0.166201 0.154665
0.227420 0.171786 0.159457
0.250675 0.177310 0.164034
0.274998 0.182956 0.168246
0.300633 0.188876 0.172274
0.327367 0.195102 0.176547
0.356115 0.201907 0.180972
0.387060 0.209384 0.185580
0.420569 0.217624 0.190555
0.457374 0.226932 0.195865
0.497292 0.237095 0.201083
0.539666 0.248356 0.206699
0.585046 0.260227 0.212345
0.632837 0.273381 0.217929
0.683192 0.287144 0.223667
0.732937 0.301488 0.229709
0.780697 0.315923 0.236423
0.825132 0.330480 0.243870
0.866117 0.345037 0.252415
0.904662 0.359899 0.262425
0.939940 0.375311 0.274357
0.971801 0.391272 0.288212
0.999512 0.407965 0.304387
1.000000 0.425483 0.322820
1.000000 0.444038 0.343725
1.000000 0.464118 0.367132
1.000000 0.486244 0.393225
1.000000 0.510643 0.422309
0.166293 0.165194 0.154818
0.168215 0.165316 0.154971
0.173922 0.166110 0.154116
0.188998 0.168185 0.151583
0.207919 0.171237 0.153628
0.228702 0.175814 0.158389
0.251530 0.181064 0.163058
0.275212 0.186374 0.167361
0.300847 0.192142 0.171389
0.327764 0.198154 0.175875
0.356512 0.204807 0.180148
0.387243 0.212314 0.184939
0.421088 0.220676 0.189883
0.457771 0.230045 0.195010
0.497536 0.240146 0.200412
0.540063 0.251408 0.205722
0.585443 0.263615 0.211429
0.633326 0.276493 0.217166
0.683650 0.290379 0.222751
0.733425 0.304356 0.228977
0.780972 0.318730 0.235691
0.825406 0.333257 0.243137
0.866484 0.347662 0.251713
0.904784 0.362524 0.261753
0.940185 0.377691 0.273655
0.971923 0.393469 0.287755
0.999634 0.409918 0.303960
1.000000 0.427161 0.322545
1.000000 0.445533 0.343511
1.000000 0.465583 0.366949
1.000000 0.487434 0.393103
1.000000 0.511772 0.422278
0.170260 0.174807 0.161257
0.172946 0.175021 0.161349
0.180331 0.173770 0.163241
0.189273 0.177035 0.157015
0.208499 0.179110 0.155337
0.230259 0.182254 0.156924
0.252262 0.186740 0.161563
0.275944 0.191653 0.165927
0.301396 0.196933 0.170230
0.328099 0.203067 0.174380
0.356786 0.209537 0.178866
0.387823 0.216983 0.183474
0.421576 0.225223 0.188632
0.458412 0.234745 0.193729
0.498054 0.244999 0.199100
0.540612 0.256413 0.204501
0.586206 0.268406 0.210056
0.633967 0.281407 0.215640
0.684199 0.295171 0.221530
0.734096 0.309392 0.227512
0.781582 0.323430 0.234287
0.825956 0.337560 0.241855
0.866850 0.351965 0.250431
0.905303 0.366339 0.260655
0.940520 0.381323 0.272740
0.972198 0.396887 0.286931
0.999878 0.412909 0.303319
1.000000 0.429969 0.322026
1.000000 0.448096 0.343114
1.000000 0.467720 0.366674
1.000000 0.489387 0.392950
1.000000 0.513512 0.422187
0.176211 0.184146 0.167971
0.177798 0.184115 0.168124
0.185794 0.183963 0.170077
0.191745 0.183780 0.168399
0.206546 0.188571 0.161379
0.228672 0.191104 0.159915
0.253086 0.194522 0.159426
0.276707 0.199008 0.163912
0.301823 0.204074 0.168276
0.328649 0.209781 0.172519
0.357397 0.216159 0.177035
0.388464 0.223636 0.181643
0.422278 0.231968 0.186587
0.459113 0.241428 0.191714
0.498878 0.251652 0.197086
0.541650 0.263066 0.202457
0.587121 0.275181 0.208133
0.635096 0.288243 0.213779
0.685420 0.301915 0.219516
0.735012 0.315831 0.225711
0.782498 0.329900 0.232456
0.826688 0.343816 0.240055
0.867613 0.357733 0.248753
0.905852 0.371862 0.259190
0.941039 0.386481 0.271458
0.972564 0.401495 0.285801
1.000000 0.417212 0.302373
1.000000 0.433753 0.321233
1.000000 0.451575 0.342565
1.000000 0.470893 0.366278
1.000000 0.492195 0.392767
1.000000 0.516045 0.422217
0.181186 0.193637 0.174899
0.183139 0.193423 0.174868
0.188998 0.193790 0.175875
0.197787 0.191562 0.178012
0.205661 0.195590 0.172488
0.225711 0.200504 0.166354
0.250187 0.204013 0.164920
0.276982 0.208316 0.162905
0.302800 0.212985 0.165682
0.329473 0.218479 0.169986
0.358221 0.224857 0.174533
0.389227 0.232181 0.179355
0.423285 0.240635 0.184268
0.460121 0.250034 0.189395
0.500175 0.260441 0.194522
0.542931 0.271580 0.199954
0.588525 0.283726 0.205570
0.636744 0.296880 0.211154
0.686854 0.310369 0.216892
0.736446 0.324193 0.223087
0.783597 0.338109 0.230014
0.827512 0.351598 0.237736
0.868437 0.365148 0.246647
0.906767 0.378882 0.257267
0.941772 0.393042 0.269718
0.973205 0.407660 0.284276
1.000000 0.422797 0.301122
1.000000 0.438849 0.320287
1.000000 0.456092 0.341741
1.000000 0.474983 0.365789
1.000000 0.495857 0.392493
1.000000 0.519249 0.422095
0.187259 0.203983 0.182315
0.188632 0.204135 0.182406
0.193545 0.204288 0.182773
0.204288 0.203037 0.185550
0.210422 0.202762 0.184207
0.223423 0.208865 0.176242
0.247013 0.214084 0.172061
0.273564 0.218570 0.170474
0.302678 0.223850 0.168399
0.330114 0.229191 0.166720
0.359167 0.235325 0.171298
0.390509 0.242527 0.176150
0.424659 0.250889 0.181125
0.461921 0.260288 0.186191
0.502037 0.270634 0.191501
0.544823 0.281926 0.196841
0.590539 0.294041 0.202457
0.638880 0.307134 0.207980
0.688991 0.320714 0.213779
0.738338 0.334539 0.219944
0.785153 0.347967 0.226902
0.828916 0.361028 0.234745
0.869657 0.374182 0.243900
0.907774 0.387366 0.254856
0.942718 0.401099 0.267521
0.974029 0.414954 0.282506
1.000000 0.429633 0.299626
1.000000 0.445014 0.319127
1.000000 0.461646 0.340917
1.000000 0.479988 0.365209
1.000000 0.500328 0.392157
1.000000 0.523247 0.422126
0.193606 0.215702 0.190799
0.194949 0.215824 0.190738
0.199039 0.215915 0.190951
0.210513 0.215885 0.193942
0.218357 0.212558 0.194858
0.226902 0.216983 0.189670
0.244358 0.224094 0.180819
0.270665 0.229343 0.177829
0.299168 0.234653 0.176364
0.330419 0.241032 0.174136
0.360540 0.247196 0.171572
0.392493 0.254551 0.172335
0.426886 0.262821 0.177462
0.464179 0.272221 0.182376
0.504570 0.282628 0.187625
0.547478 0.293980 0.192935
0.593317 0.306249 0.198581
0.641596 0.319249 0.204105
0.691707 0.332860 0.209842
0.740688 0.346319 0.216098
0.787320 0.359442 0.223117
0.830594 0.372107 0.231266
0.871122 0.384710 0.240604
0.909087 0.397498 0.251835
0.943938 0.410529 0.264988
0.974914 0.423804 0.280308
1.000000 0.437751 0.297765
1.000000 0.452461 0.317601
1.000000 0.468452 0.339849
1.000000 0.486030 0.364446
1.000000 0.505669 0.391760
1.000000 0.528099 0.422034
0.200259 0.228458 0.199863
0.201389 0.228489 0.199832
0.205264 0.228672 0.199863
0.214572 0.228641 0.201205
0.226535 0.226352 0.204196
0.233005 0.225376 0.203098
0.246250 0.232822 0.195193
0.269688 0.241978 0.185946
0.296941 0.246281 0.184268
0.327337 0.252415 0.182528
0.361486 0.259983 0.179873
0.394354 0.267277 0.176974
0.430030 0.276280 0.173922
0.467414 0.285924 0.177890
0.507805 0.296361 0.183108
0.550988 0.307774 0.188479
0.596796 0.319860 0.193851
0.645136 0.332982 0.199252
0.695033 0.346441 0.204990
0.743587 0.359747 0.211307
0.789700 0.372534 0.218631
0.832731 0.384802 0.226963
0.873075 0.396918 0.236637
0.910826 0.409003 0.248386
0.945312 0.421271 0.261967
0.976013 0.433997 0.277653
1.000000 0.447089 0.295720
1.000000 0.461036 0.315953
1.000000 0.476204 0.338689
1.000000 0.493050 0.363775
1.000000 0.512016 0.391455
1.000000 0.533745 0.422095
0.206699 0.242069 0.209384
0.207553 0.242100 0.209384
0.211826 0.242130 0.209415
0.219455 0.242252 0.209781
0.234073 0.241062 0.213779
0.242313 0.236973 0.214755
0.251286 0.241764 0.209628
0.268986 0.250614 0.200443
0.296330 0.259770 0.192172
0.325658 0.264988 0.190524
0.358770 0.271977 0.188724
0.395819 0.281102 0.185733
0.432136 0.289921 0.182406
0.471534 0.300328 0.178256
0.511925 0.311376 0.177707
0.555383 0.322972 0.182834
0.601221 0.335302 0.188205
0.649622 0.348363 0.193698
0.699184 0.361883 0.199252
0.747127 0.374792 0.205722
0.792660 0.387030 0.213169
0.835325 0.398779 0.221897
0.875456 0.410498 0.232059
0.912840 0.421881 0.244175
0.946990 0.433448 0.258366
0.977356 0.445228 0.274754
1.000000 0.457618 0.293217
1.000000 0.470680 0.314153
1.000000 0.485023 0.337285
1.000000 0.500969 0.362951
1.000000 0.519280 0.391028
1.000000 0.540276 0.422156
0.213535 0.256474 0.219150
0.214542 0.256504 0.219272
0.217838 0.256504 0.219211
0.225254 0.256596 0.219394
0.239902 0.256321 0.223026
0.251591 0.252567 0.224704
0.258610 0.250675 0.223880
0.272251 0.259800 0.215763
0.293156 0.268894 0.205386
0.325475 0.279179 0.198642
0.357641 0.285435 0.196750
0.393469 0.293858 0.194919
0.433600 0.304387 0.191318
0.473671 0.314916 0.187167
0.516533 0.326726 0.181918
0.560693 0.339788 0.176120
0.606439 0.352148 0.181430
0.654932 0.365301 0.186648
0.703975 0.378515 0.192477
0.751308 0.391089 0.199130
0.796292 0.402960 0.206943
0.838407 0.414191 0.216037
0.878141 0.425086 0.226902
0.915221 0.436011 0.239475
0.948913 0.446876 0.254215
0.978912 0.457771 0.271305
1.000000 0.469123 0.290623
1.000000 0.481392 0.312108
1.000000 0.494789 0.335851
1.000000 0.509911 0.362005
1.000000 0.527306 0.390631
1.000000 0.547509 0.422278
0.220066 0.271641 0.229557
0.220645 0.271672 0.229404
0.224338 0.271733 0.229465
0.231388 0.271733 0.229435
0.243351 0.271580 0.231052
0.259892 0.268956 0.235203
0.268925 0.263951 0.236027
0.278202 0.269017 0.231357
0.296544 0.279576 0.221958
0.323125 0.291142 0.209995
0.357580 0.300450 0.204959
0.392737 0.308202 0.203433
0.431739 0.318212 0.201053
0.475196 0.330236 0.197116
0.519158 0.342290 0.191531
0.565118 0.355566 0.185306
0.612909 0.370031 0.177371
0.661250 0.383764 0.178408
0.709529 0.396674 0.184390
0.756130 0.408972 0.191287
0.800229 0.420142 0.199466
0.842039 0.431006 0.209049
0.881346 0.441321 0.220523
0.917937 0.451331 0.234134
0.951202 0.461433 0.249638
0.980560 0.471443 0.267399
1.000000 0.481941 0.287480
1.000000 0.493111 0.309789
1.000000 0.505486 0.334264
1.000000 0.519707 0.361089
1.000000 0.536156 0.390295
1.000000 0.555596 0.422553
0.226719 0.287388 0.240116
0.227268 0.287419 0.240085
0.230594 0.287480 0.240116
0.237369 0.287572 0.239963
0.247715 0.287572 0.240421
0.267185 0.286290 0.245975
0.278843 0.281132 0.246769
0.286168 0.278141 0.246250
0.300755 0.288945 0.238163
0.323644 0.301030 0.227298
0.357916 0.316838 0.214206
0.392767 0.323949 0.211521
0.431159 0.333410 0.209689
0.473671 0.345006 0.207004
0.520531 0.358495 0.202090
0.568231 0.372259 0.195438
0.617212 0.386694 0.187778
0.668086 0.402502 0.178256
0.715694 0.416297 0.174533
0.761471 0.428046 0.181735
0.804776 0.438697 0.190646
0.846067 0.448798 0.201022
0.885008 0.458564 0.213413
0.921019 0.467872 0.227817
0.953613 0.476967 0.244450
0.982544 0.486122 0.263249
1.000000 0.495460 0.284276
1.000000 0.505730 0.307317
1.000000 0.517082 0.332647
1.000000 0.530358 0.360082
1.000000 0.545861 0.389960
1.000000 0.564446 0.422919
0.232914 0.303929 0.251133
0.233616 0.303960 0.251102
0.236698 0.304021 0.251041
0.243259 0.304021 0.250919
0.253727 0.303990 0.251041
0.271641 0.303471 0.255283
0.287755 0.299107 0.257939
0.297032 0.293095 0.258701
0.307073 0.298070 0.254093
0.326574 0.310613 0.244724
0.353613 0.324132 0.232486
0.393591 0.341344 0.220951
0.431708 0.349859 0.218204
0.473548 0.360967 0.216159
0.519524 0.374090 0.212497
0.569512 0.389136 0.206668
0.620722 0.404395 0.198764
0.671656 0.419715 0.189487
0.721553 0.434821 0.179080
0.767422 0.448219 0.170504
0.809995 0.458350 0.180179
0.850767 0.467872 0.191684
0.889097 0.476875 0.205112
0.924407 0.485389 0.220859
0.956390 0.493568 0.238621
0.984619 0.501610 0.258610
1.000000 0.510002 0.280613
1.000000 0.519066 0.304692
1.000000 0.529534 0.330877
1.000000 0.541772 0.359106
1.000000 0.556390 0.389776
1.000000 0.573999 0.423438
0.239536 0.321172 0.262425
0.240024 0.321202 0.262394
0.243168 0.321263 0.262333
0.249638 0.321202 0.261936
0.259434 0.321172 0.262058
0.274571 0.320897 0.264012
0.295995 0.317906 0.269474
0.308019 0.311742 0.270146
0.315404 0.307378 0.269963
0.331487 0.320073 0.262028
0.355901 0.334752 0.251316
0.385901 0.348669 0.237858
0.432319 0.368139 0.227848
0.474067 0.378424 0.224765
0.519097 0.390967 0.222385
0.568353 0.405585 0.217716
0.621851 0.422095 0.210391
0.675135 0.438270 0.201572
0.724575 0.452644 0.191440
0.771908 0.466255 0.180911
0.815732 0.478889 0.170321
0.855802 0.488045 0.180423
0.893523 0.496193 0.195468
0.928130 0.503838 0.212711
0.959380 0.511070 0.231998
0.986877 0.518059 0.253452
1.000000 0.525383 0.276768
1.000000 0.533410 0.301946
1.000000 0.542748 0.329076
1.000000 0.553857 0.358221
1.000000 0.567529 0.389776
1.000000 0.584222 0.424170
0.245731 0.339239 0.274327
0.246311 0.339330 0.274388
0.249577 0.339361 0.274144
0.255711 0.339239 0.273869
0.265171 0.339300 0.273686
0.278050 0.339300 0.274083
0.303532 0.338048 0.281621
0.317906 0.331518 0.282170
0.327550 0.324498 0.282780
0.338170 0.329442 0.278721
0.359167 0.344396 0.269505
0.389044 0.361395 0.257359
0.427710 0.380377 0.242588
0.474739 0.397314 0.234806
0.519951 0.409125 0.231174
0.568292 0.423285 0.228214
0.620600 0.439277 0.222141
0.675563 0.456336 0.214237
0.727535 0.471656 0.204746
0.774533 0.484627 0.194888
0.819364 0.496986 0.184878
0.861509 0.508476 0.174563
0.898253 0.516564 0.184146
0.932128 0.523247 0.203525
0.962463 0.529412 0.224552
0.989105 0.535363 0.247715
1.000000 0.541497 0.272557
1.000000 0.548425 0.298985
1.000000 0.556664 0.327214
1.000000 0.566766 0.357366
1.000000 0.579370 0.389868
1.000000 0.595087 0.425116
0.252049 0.358343 0.286625
0.252476 0.358373 0.286778
0.255406 0.358434 0.286656
0.261601 0.358434 0.286290
0.271000 0.358343 0.285801
0.283787 0.358373 0.285985
0.306065 0.357519 0.290867
0.327214 0.352483 0.294835
0.339269 0.345129 0.295262
0.346838 0.338872 0.295140
0.364538 0.353826 0.287388
0.390845 0.371099 0.276890
0.425849 0.390478 0.263249
0.473854 0.415534 0.246433
0.520500 0.428870 0.241642
0.568872 0.442267 0.237522
0.620661 0.457862 0.233463
0.674372 0.474250 0.227054
0.727291 0.490059 0.218936
0.777188 0.504204 0.209720
0.821958 0.515892 0.200900
0.863981 0.526787 0.191653
0.902739 0.536584 0.182803
0.936217 0.543359 0.192874
0.965667 0.548455 0.216373
0.991485 0.553277 0.241520
1.000000 0.558312 0.267979
1.000000 0.564080 0.295903
1.000000 0.571160 0.325383
1.000000 0.580316 0.356573
1.000000 0.591821 0.390051
1.000000 0.606592 0.426337
0.257725 0.378515 0.299626
0.258427 0.378485 0.299535
0.261387 0.378576 0.299474
0.267521 0.378546 0.299138
0.276768 0.378546 0.298680
0.289464 0.378485 0.298619
0.308171 0.378058 0.300786
0.335821 0.374853 0.308232
0.350622 0.367163 0.308568
0.360449 0.358709 0.308721
0.371984 0.363653 0.305058
0.394965 0.381018 0.296422
0.427008 0.400977 0.284337
0.465217 0.421057 0.269169
0.522210 0.450813 0.252354
0.571008 0.463783 0.248173
0.622827 0.478889 0.243320
0.675624 0.494728 0.239170
0.727962 0.509880 0.232853
0.778073 0.523857 0.225467
0.824643 0.536095 0.217472
0.866423 0.546288 0.209323
0.904723 0.555230 0.201816
0.939239 0.562951 0.195102
0.968994 0.568170 0.207065
0.993927 0.571740 0.234775
1.000000 0.575647 0.263127
1.000000 0.580346 0.292699
1.000000 0.586389 0.323430
1.000000 0.594354 0.355932
1.000000 0.604852 0.390509
1.000000 0.618677 0.427863
0.263218 0.400519 0.313664
0.264256 0.400458 0.313573
0.267216 0.400488 0.313298
0.273045 0.400488 0.312993
0.282506 0.400427 0.312474
0.295323 0.400397 0.312108
0.311528 0.400153 0.312444
0.342504 0.398688 0.321477
0.361975 0.391180 0.322911
0.374487 0.382513 0.323125
0.381628 0.373816 0.323003
0.401740 0.391730 0.315648
0.430518 0.412024 0.305486
0.468544 0.434913 0.291905
0.511681 0.457160 0.274876
0.574792 0.488258 0.259739
0.627100 0.502922 0.254429
0.679866 0.517754 0.249973
0.731136 0.532189 0.246250
0.780545 0.545373 0.240787
0.826627 0.556970 0.234684
0.868681 0.566796 0.228092
0.906645 0.574975 0.222019
0.940703 0.581720 0.216800
0.970611 0.587182 0.212375
0.996338 0.590936 0.227207
1.000000 0.593591 0.257939
1.000000 0.597101 0.289281
1.000000 0.602014 0.321660
1.000000 0.608881 0.355413
1.000000 0.618341 0.391302
1.000000 0.631189 0.429725
0.268711 0.424475 0.328771
0.269627 0.424475 0.328740
0.272435 0.424506 0.328344
0.278508 0.424537 0.327977
0.288273 0.424506 0.327398
0.301610 0.424323 0.326940
0.317815 0.424231 0.327031
0.345525 0.423072 0.332921
0.372778 0.417578 0.338659
0.388342 0.408392 0.338598
0.398413 0.398596 0.338537
0.410864 0.403021 0.335241
0.436835 0.423835 0.326696
0.471778 0.447364 0.315221
0.516503 0.473884 0.299351
0.570550 0.503288 0.279911
0.633021 0.530022 0.267308
0.685695 0.543877 0.262211
0.736538 0.557214 0.259190
0.785000 0.569482 0.256107
0.830137 0.580102 0.251926
0.871366 0.588891 0.247410
0.908202 0.595880 0.242741
0.941772 0.601648 0.239078
0.971099 0.606104 0.235569
0.996735 0.609552 0.233646
1.000000 0.611994 0.252567
1.000000 0.614313 0.285954
1.000000 0.618097 0.319921
1.000000 0.623926 0.355169
1.000000 0.632380 0.392340
1.000000 0.644221 0.431983
0.273838 0.450935 0.345190
0.274571 0.450935 0.345190
0.277531 0.450965 0.345006
0.284123 0.450843 0.344396
0.294041 0.450843 0.343816
0.307286 0.450813 0.343267
0.324407 0.450568 0.342962
0.348180 0.449836 0.345708
0.383978 0.446662 0.355901
0.402350 0.437140 0.355810
0.415473 0.426734 0.355535
0.422583 0.415778 0.355138
0.445472 0.436286 0.348486
0.477821 0.460609 0.338720
0.519921 0.487922 0.325231
0.569390 0.516594 0.307317
0.636255 0.554833 0.284428
0.692775 0.572961 0.276646
0.743465 0.584894 0.272801
0.791135 0.595941 0.271214
0.835447 0.605402 0.269932
0.875547 0.613001 0.267369
0.911345 0.618677 0.264988
0.942596 0.622583 0.262181
0.971160 0.626032 0.260136
0.996307 0.628412 0.258579
1.000000 0.630091 0.257908
1.000000 0.631891 0.282628
1.000000 0.634577 0.318486
1.000000 0.639307 0.355200
1.000000 0.646754 0.393744
1.000000 0.657679 0.434791
0.278111 0.480110 0.363317
0.278904 0.480079 0.363256
0.282567 0.480079 0.362951
0.288853 0.480079 0.362493
0.299260 0.479957 0.361761
0.313085 0.479866 0.361028
0.330755 0.479652 0.360540
0.351690 0.479225 0.360723
0.390845 0.477150 0.371801
0.416632 0.468757 0.374701
0.432868 0.457588 0.374151
0.443214 0.445899 0.373541
0.456641 0.449531 0.370550
0.486549 0.474830 0.362707
0.526085 0.503044 0.351385
0.575402 0.534539 0.335668
0.628046 0.563622 0.315557
0.701137 0.605066 0.292149
0.751492 0.615686 0.289677
0.798764 0.624872 0.287297
0.841978 0.632807 0.288060
0.880827 0.639063 0.288273
0.915404 0.643427 0.287938
0.945403 0.645991 0.286931
0.971283 0.647120 0.285588
0.995422 0.648310 0.285130
1.000000 0.649104 0.284886
1.000000 0.649439 0.284886
1.000000 0.651362 0.317082
1.000000 0.655085 0.355566
1.000000 0.661524 0.395636
1.000000 0.671473 0.438025
0.281834 0.512322 0.383185
0.282872 0.512383 0.383154
0.286168 0.512352 0.382788
0.293370 0.512291 0.382300
0.304112 0.512261 0.381598
0.318883 0.512108 0.380682
0.337285 0.511833 0.379919
0.358831 0.511498 0.379858
0.395117 0.509789 0.387427
0.430884 0.503899 0.395636
0.450568 0.492042 0.394842
0.464271 0.479622 0.394079
0.471717 0.466560 0.392981
0.497810 0.489845 0.387213
0.535088 0.519371 0.378149
0.582116 0.551843 0.365057
0.637079 0.585901 0.347112
0.692195 0.615259 0.325994
0.760342 0.648920 0.308110
0.806973 0.656458 0.307225
0.849271 0.662379 0.306859
0.886931 0.666865 0.310185
0.919890 0.669764 0.312230
0.948547 0.670832 0.313329
0.973358 0.670680 0.313298
0.994812 0.669581 0.312993
1.000000 0.668971 0.312993
1.000000 0.668544 0.313420
1.000000 0.667903 0.315557
1.000000 0.671046 0.356329
1.000000 0.676539 0.397986
1.000000 0.685634 0.441901
0.283879 0.548547 0.405280
0.285161 0.548516 0.405310
0.288640 0.548486 0.404974
0.296086 0.548486 0.404517
0.307866 0.548333 0.403571
0.323430 0.548241 0.402686
0.342931 0.547936 0.401709
0.366125 0.547478 0.401129
0.398047 0.546227 0.404730
0.445258 0.543328 0.419074
0.468727 0.530632 0.417975
0.486152 0.517479 0.416968
0.497139 0.503380 0.415595
0.511650 0.505913 0.412787
0.546960 0.536767 0.405859
0.591302 0.570092 0.395544
0.643061 0.604364 0.381140
0.699397 0.637690 0.361700
0.758724 0.669154 0.340368
0.815579 0.690272 0.330022
0.856901 0.694209 0.331365
0.893462 0.696407 0.333135
0.924681 0.697444 0.338384
0.951812 0.697078 0.341405
0.975372 0.695644 0.343267
0.995911 0.693355 0.343725
1.000000 0.690547 0.343450
1.000000 0.688502 0.343542
1.000000 0.687129 0.344152
1.000000 0.686976 0.357092
1.000000 0.691829 0.400793
1.000000 0.700069 0.446357
0.286015 0.588190 0.430121
0.286809 0.588220 0.430060
0.291264 0.588128 0.429664
0.299443 0.588067 0.429053
0.311925 0.587915 0.428138
0.328679 0.587701 0.427192
0.349737 0.587243 0.425940
0.374670 0.586633 0.425086
0.402075 0.585962 0.425422
0.453285 0.582788 0.439277
0.488045 0.573388 0.444282
0.509026 0.559655 0.442817
0.523796 0.544762 0.441108
0.531426 0.529168 0.439216
0.561547 0.555413 0.434821
0.602991 0.589197 0.427314
0.651667 0.623835 0.416358
0.705989 0.658228 0.400855
0.758999 0.687098 0.381384
0.819547 0.718990 0.361486
0.864347 0.727718 0.359258
0.899351 0.727718 0.362585
0.929290 0.726406 0.366491
0.954894 0.724544 0.372290
0.977142 0.721798 0.375952
0.996643 0.718410 0.377539
1.000000 0.714656 0.377874
1.000000 0.710506 0.376837
1.000000 0.707301 0.376287
1.000000 0.705287 0.376898
1.000000 0.707210 0.404089
1.000000 0.714717 0.451575
0.291844 0.629969 0.457588
0.293278 0.629938 0.457527
0.297917 0.629816 0.457130
0.306676 0.629725 0.456611
0.320012 0.629541 0.455818
0.338415 0.629206 0.454749
0.360845 0.628656 0.453529
0.386938 0.628046 0.452888
0.416236 0.627039 0.453010
0.462898 0.624414 0.463020
0.509789 0.618158 0.475288
0.533715 0.604639 0.473213
0.551598 0.589837 0.470924
0.563134 0.573907 0.468360
0.578668 0.574823 0.465827
0.617578 0.609522 0.461189
0.663111 0.644343 0.453773
0.713680 0.678523 0.442390
0.767422 0.710872 0.426734
0.814542 0.733516 0.407874
0.871183 0.762325 0.391333
0.904570 0.760037 0.396704
0.933104 0.756680 0.401190
0.957488 0.752926 0.406378
0.978363 0.748959 0.411994
0.996735 0.744625 0.414710
1.000000 0.739956 0.415656
1.000000 0.735042 0.415045
1.000000 0.729946 0.412818
1.000000 0.725795 0.411414
1.000000 0.723354 0.411780
1.000000 0.729549 0.457527
0.307500 0.673091 0.488441
0.308385 0.673060 0.488319
0.312993 0.673030 0.488106
0.322271 0.672847 0.487648
0.336553 0.672541 0.486854
0.355688 0.672084 0.485969
0.379248 0.671443 0.485267
0.406683 0.670649 0.484810
0.437354 0.669429 0.485389
0.477607 0.667323 0.491432
0.533349 0.663233 0.509087
0.561273 0.651270 0.508965
0.581537 0.636927 0.506096
0.596216 0.621393 0.503044
